icons/svg/signal-variant.svg

<svg xmlns="http://www.w3.org/2000/svg" version="1.1" baseProfile="full" width="24" height="24" viewBox="0 0 24.00 24.00" xml:space="preserve"><path fill="#000" fill-opacity="1" stroke-width="1.333" stroke-linejoin="miter" d="M4 6V4h.1C12.9 4 20 11.1 20 19.9v.1h-2v-.1C18 12.2 11.8 6 4 6zm0 4V8c6.6 0 12 5.4 12 12h-2c0-5.5-4.5-10-10-10zm0 4v-2c4.4 0 8 3.6 8 8h-2c0-3.3-2.7-6-6-6zm0 2c2.21 0 4 1.79 4 4H4v-4z"/></svg>

﻿<?xml version="1.0" encoding="utf-8"?>
<!DOCTYPE svg PUBLIC "-//W3C//DTD SVG 1.1//EN" "http://www.w3.org/Graphics/SVG/1.1/DTD/svg11.dtd">
<svg xmlns="http://www.w3.org/2000/svg" xmlns:xlink="http://www.w3.org/1999/xlink" version="1.1" baseProfile="full" width="24" height="24" viewBox="0 0 24.00 24.00" enable-background="new 0 0 24.00 24.00" xml:space="preserve">
	<path fill="#000000" fill-opacity="1" stroke-width="1.33333" stroke-linejoin="miter" d="M 4,6L 4,4L 4.1,4C 12.9,4 20,11.1 20,19.9L 20,20L 18,20L 18,19.9C 18,12.2 11.8,6 4,6 Z M 4,10L 4,8C 10.6,8 16,13.4 16,20L 14,20C 14,14.5 9.5,10 4,10 Z M 4,14L 4,12C 8.4,12 12,15.6 12,20L 10,20C 10,16.7 7.3,14 4,14 Z M 4,16C 6.20914,16 8,17.7909 8,20L 4,20L 4,16 Z "/>
</svg>
